X: 35040
T: Rolling Down The Hills
R: jig
M: 6/8
K: Gmajor
|:DBA B2A|Bdg edB|AAA AGA|BGE GED|
DBA B2A|Bdg edB|ged edB|dBA AGE:|
|:DEG AAA|AGA BGE|DEG AAA|AGE GED|
DEG AAA|AGA BGE|ged edB|dBA AGE:|

